X:1
T: Never Love Thee More
N:
C:
S:
A:
O:
R:
M:6/8
K:G
I:speed 180
%W: A1
% voice 1 (1 lines, 17 notes)
K:G
M:6/8
L:1/16
D3 E D2 G4 A2 B3 c B2 A4 G2 d2 B4 A4 G2 E6E4 E2 |
%W:
% voice 1 (1 lines, 17 notes)
D3 E D2 G4 A2 B3 c B2 A4 G2 d2 B4 c4 d2 e6e4 e2 |
%W:
% voice 1 (1 lines, 17 notes)
d2 B4 A4 G2 c4 d2 e3 d c2 d2 B2 c2 A4 G2 E6E4 E2 |
%W:
% voice 1 (1 lines, 20 notes)
D3 E D2 G3 A G2 B2 c2 d2 e3 d c2 d2 B2 c2 A4 G2 G6G4 z2 ||
%W: A2
% voice 1 (1 lines, 17 notes)
D3 E D2 G4 A2 B3 c B2 A4 G2 d2 B4 A4 G2 E6E4 E2 |
%W:
% voice 1 (1 lines, 17 notes)
D3 E D2 G4 A2 B3 c B2 A4 G2 d2 B4 c4 d2 e6e4 e2 |
%W:
% voice 1 (1 lines, 17 notes)
d2 B4 A4 G2 c4 d2 e3 d c2 d2 B2 c2 A4 G2 E6E4 E2 |
%W:
% voice 1 (1 lines, 20 notes)
D3 E D2 G3 A G2 B2 c2 d2 e3 d c2 d2 B2 c2 A4 G2 G6G4 z2 ||
